img/icon-phone-footer.svg

<svg fill="none" height="19" viewBox="0 0 18 19" width="18" xmlns="http://www.w3.org/2000/svg"><path clip-rule="evenodd" d="m5.0907 1.47413c-1.17322.53833-2.20641 1.09609-2.86894 1.86041-.62228.71789-.96228 1.67142-.59026 3.16694 1.76854 5.41952 5.16521 9.00772 10.2386 10.86572.7044.1957 1.2605.1999 1.7088.0951.4514-.1056.8412-.3327 1.1942-.6694.7237-.6902 1.2559-1.8014 1.7425-3.1125.0467-.2772-.1286-.5335-.3387-.5971l-.0593-.0179-4.0456-2.007c-.0082.0025-.0195.0073-.0356.0162-.0655.0359-.1645.12-.2802.2767-.2333.3159-.4082.7535-.4749 1.0318l-.2191.9151-.8397-.4332c-1.88323-.9717-3.56702-2.366-4.47473-4.76348l-.2679-.70757.71729-.24551.0009-.00031.01095-.00392c.0105-.00381.02764-.01015.05038-.01893.04562-.01763.11291-.0448.19371-.08091.16452-.07351.3712-.17792.56231-.30653.19794-.13321.33669-.26421.41035-.37673.04585-.07004.05646-.11413.05407-.15013l-1.9046-4.30898-.01458-.05403c-.07678-.28458-.30623-.39185-.46995-.37384zm2.31376 6.74219c.64525 1.31219 1.60736 2.22278 2.76444 2.93228.1098-.2284.2423-.4583.3965-.6671.3415-.4624 1.0244-1.11042 1.9594-.82891l.0598.01801 4.0882 2.0282c.9664.3306 1.5045 1.3748 1.2742 2.3519l-.0102.0435-.0155.0419c-.4949 1.342-1.1253 2.7632-2.1256 3.7173-.5135.4899-1.132.8647-1.8786 1.0393-.7442.174-1.5679.138-2.4773-.1195l-.0263-.0074-.0257-.0094c-5.54715-2.0227-9.2691-5.9806-11.169798-11.82652l-.007559-.02324-.005989-.0237c-.490457-1.94056-.06238-3.39958.898286-4.50785.90971-1.04947 2.25081-1.725438 3.4464-2.270602l.05649-.0257553.06001-.0160094c1.0299-.2747323 2.01391.3856407 2.30483 1.3445767l1.91567 4.33404.01461.0543c.14325.53241-.00003 1.00545-.23684 1.3672-.22503.34375-.54266.60498-.8205.79196-.14913.10036-.29931.1876-.43895.26152z" fill="#fff" fill-rule="evenodd"/></svg>

<svg width="18" height="19" viewBox="0 0 18 19" fill="none" xmlns="http://www.w3.org/2000/svg">
<path fill-rule="evenodd" clip-rule="evenodd" d="M5.0907 1.47413C3.91748 2.01246 2.88429 2.57022 2.22176 3.33454C1.59948 4.05243 1.25948 5.00596 1.6315 6.50148C3.40004 11.921 6.79671 15.5092 11.8701 17.3672C12.5745 17.5629 13.1306 17.5671 13.5789 17.4623C14.0303 17.3567 14.4201 17.1296 14.7731 16.7929C15.4968 16.1027 16.029 14.9915 16.5156 13.6804C16.5623 13.4032 16.387 13.1469 16.1769 13.0833L16.1176 13.0654L12.072 11.0584C12.0638 11.0609 12.0525 11.0657 12.0364 11.0746C11.9709 11.1105 11.8719 11.1946 11.7562 11.3513C11.5229 11.6672 11.348 12.1048 11.2813 12.3831L11.0622 13.2982L10.2225 12.865C8.33927 11.8933 6.65548 10.499 5.74777 8.10152L5.47987 7.39395L6.19716 7.14844L6.19806 7.14813L6.20901 7.14421C6.21951 7.1404 6.23665 7.13406 6.25939 7.12528C6.30501 7.10765 6.3723 7.08048 6.4531 7.04437C6.61762 6.97086 6.8243 6.86645 7.01541 6.73784C7.21335 6.60463 7.3521 6.47363 7.42576 6.36111C7.47161 6.29107 7.48222 6.24698 7.47983 6.21098L5.57523 1.902L5.56065 1.84797C5.48387 1.56339 5.25442 1.45612 5.0907 1.47413ZM7.40446 8.21632C8.04971 9.52851 9.01182 10.4391 10.1689 11.1486C10.2787 10.9202 10.4112 10.6903 10.5654 10.4815C10.9069 10.0191 11.5898 9.37108 12.5248 9.65259L12.5846 9.6706L16.6728 11.6988C17.6392 12.0294 18.1773 13.0736 17.947 14.0507L17.9368 14.0942L17.9213 14.1361C17.4264 15.4781 16.796 16.8993 15.7957 17.8534C15.2822 18.3433 14.6637 18.7181 13.9171 18.8927C13.1729 19.0667 12.3492 19.0307 11.4398 18.7732L11.4135 18.7658L11.3878 18.7564C5.84065 16.7337 2.1187 12.7758 0.218002 6.92988L0.210443 6.90664L0.204454 6.88294C-0.286003 4.94238 0.142074 3.48336 1.10274 2.37509C2.01245 1.32562 3.35355 0.649652 4.54914 0.104488L4.60563 0.0787327L4.66564 0.0627233C5.69554 -0.212009 6.67955 0.448364 6.97047 1.4073L8.88614 5.74134L8.90075 5.79564C9.044 6.32805 8.90072 6.80109 8.66391 7.16284C8.43888 7.50659 8.12125 7.76782 7.84341 7.9548C7.69428 8.05516 7.5441 8.1424 7.40446 8.21632Z" fill="white"/>
</svg>
